devices/16/drive-harddisk.svg

<?xml version="1.0" encoding="UTF-8" standalone="no"?>
<!-- Created with Inkscape (http://www.inkscape.org/) -->

<svg
   xmlns:svg="http://www.w3.org/2000/svg"
   xmlns="http://www.w3.org/2000/svg"
   xmlns:xlink="http://www.w3.org/1999/xlink"
   version="1.0"
   width="16"
   height="16"
   id="svg3297">
  <defs
     id="defs3299">
    <linearGradient
       id="linearGradient3341">
      <stop
         id="stop3343"
         style="stop-color:#333;stop-opacity:1"
         offset="0" />
      <stop
         id="stop3345"
         style="stop-color:black;stop-opacity:1"
         offset="1" />
    </linearGradient>
    <linearGradient
       x1="27.566711"
       y1="44.514233"
       x2="27.566711"
       y2="52.980434"
       id="linearGradient3293"
       xlink:href="#linearGradient3341"
       gradientUnits="userSpaceOnUse"
       gradientTransform="matrix(0.2384121,0,0,0.3607527,0.367317,-3.6657439)" />
    <linearGradient
       id="linearGradient2215">
      <stop
         id="stop2223"
         style="stop-color:#555556;stop-opacity:1"
         offset="0" />
      <stop
         id="stop2219"
         style="stop-color:#0c0c0d;stop-opacity:1"
         offset="1" />
    </linearGradient>
    <linearGradient
       x1="53.99139"
       y1="87.89592"
       x2="53.99139"
       y2="104.28131"
       id="linearGradient3291"
       xlink:href="#linearGradient2215"
       gradientUnits="userSpaceOnUse"
       gradientTransform="matrix(0.1242128,0,0,0.1863981,0.233129,-3.9907482)" />
    <linearGradient
       id="linearGradient3484">
      <stop
         id="stop3486"
         style="stop-color:#9b9b9b;stop-opacity:1"
         offset="0" />
      <stop
         id="stop3488"
         style="stop-color:#b6b6b6;stop-opacity:1"
         offset="1" />
    </linearGradient>
    <linearGradient
       x1="7.8514447"
       y1="19.967693"
       x2="7.8514447"
       y2="7.034781"
       id="linearGradient3288"
       xlink:href="#linearGradient3484"
       gradientUnits="userSpaceOnUse"
       gradientTransform="matrix(0.6451613,0,0,0.9797594,0.258064,-6.7257265)" />
    <linearGradient
       id="linearGradient7056">
      <stop
         id="stop7064"
         style="stop-color:#e1e1e2;stop-opacity:1"
         offset="0" />
      <stop
         id="stop7060"
         style="stop-color:#d2d2d3;stop-opacity:1"
         offset="1" />
    </linearGradient>
    <linearGradient
       x1="-35.53907"
       y1="-144.20657"
       x2="-35.53907"
       y2="-108.32133"
       id="linearGradient3286"
       xlink:href="#linearGradient7056"
       gradientUnits="userSpaceOnUse"
       gradientTransform="matrix(0.2359882,0,0,0.3555555,18.232394,51.440112)" />
    <linearGradient
       id="linearGradient7056-300">
      <stop
         id="stop3597"
         style="stop-color:#cbcbcb;stop-opacity:1"
         offset="0" />
      <stop
         id="stop3599"
         style="stop-color:#bdbdbe;stop-opacity:1"
         offset="1" />
    </linearGradient>
    <linearGradient
       x1="35.341114"
       y1="37.03133"
       x2="35.341114"
       y2="13.899854"
       id="linearGradient3281"
       xlink:href="#linearGradient7056-300"
       gradientUnits="userSpaceOnUse"
       gradientTransform="matrix(0.3595756,0,0,0.3890817,-2.639522,-3.4081793)" />
    <linearGradient
       id="linearGradient3776">
      <stop
         id="stop3778"
         style="stop-color:#a0a0a1;stop-opacity:1"
         offset="0" />
      <stop
         id="stop3780"
         style="stop-color:#e0e0e1;stop-opacity:1"
         offset="1" />
    </linearGradient>
    <linearGradient
       x1="44.261497"
       y1="53.951618"
       x2="44.261497"
       y2="28.299864"
       id="linearGradient3278"
       xlink:href="#linearGradient3776"
       gradientUnits="userSpaceOnUse"
       gradientTransform="matrix(0.06905863,0,0,0.09205847,5.5833331,4.7600632)" />
  </defs>
  <g
     id="layer1">
    <path
       d="m 0.517589,12.612663 c 4.987351,0 9.9747,0 14.962051,0 0.04019,0.117755 0.0065,0.170578 0.01759,0.313268 -0.304165,2.535038 -0.22639,2.557994 -0.777167,2.557994 -0.21573,0.03617 -8.698317,0 -13.470165,0 C 0.651763,15.483925 0.802893,15.533246 0.5,12.5 l 0.017589,0.112663 z"
       id="rect2992"
       style="fill:url(#linearGradient3291);fill-opacity:1;fill-rule:nonzero;stroke:url(#linearGradient3293);stroke-width:0.99999988;stroke-linecap:butt;stroke-linejoin:miter;stroke-miterlimit:4;stroke-opacity:1;stroke-dasharray:none;stroke-dashoffset:0;marker:none;visibility:visible;display:inline;overflow:visible;enable-background:accumulate" />
    <path
       d="M 1.4897093,1.4657632 0.514749,12.488885 C 0.505,12.488885 0.5,12.491788 0.5,12.499999 l 14.999999,0 c 0,-0.0082 -0.005,-0.01111 -0.01475,-0.01111 L 14.479867,1.2478485 c 0,0 -0.187746,-0.74340135 -0.909635,-0.74340135 -0.688148,0 -10.5350353,-0.004447 -11.2600103,-0.004447 -0.75868,0 -0.8205124,0.96576325 -0.8205124,0.96576325 z"
       id="rect2990"
       style="fill:url(#linearGradient3286);fill-opacity:1;fill-rule:nonzero;stroke:url(#linearGradient3288);stroke-width:0.99999988;stroke-linecap:round;stroke-linejoin:round;stroke-miterlimit:4;stroke-opacity:1;stroke-dasharray:none;stroke-dashoffset:0;marker:none;visibility:visible;display:inline;overflow:visible;enable-background:accumulate" />
    <path
       d="m 1.4762913,12.5 13.0474177,0"
       id="path2215"
       style="opacity:0.6;fill:none;stroke:white;stroke-width:0.99999988;stroke-linecap:round;stroke-linejoin:round;stroke-miterlimit:4;stroke-opacity:1;stroke-dasharray:none;display:inline" />
    <path
       d="M 3.6144583,2 2.8509841,2.6227952 2.616216,4.6377207 C 2.555903,4.7762125 2.518919,4.9151489 2.518919,5.0651288 c 0,0.00833 -2.014e-4,0.016127 0,0.024423 l -0.01081,0.061058 c 0.00725,2.957e-4 0.014408,-3.643e-4 0.021622,0 0.028863,0.3352401 0.21458,0.645061 0.5189179,0.9036643 C 2.3961917,6.5720757 2,7.2128456 2,7.9104482 2,9.6190115 4.3189567,10.999999 7.1783785,11 7.3570919,11 7.5339711,10.9983 7.7081077,10.98779 l 4.9729723,0 L 13.834768,9.9284892 13.21535,2.6227952 12.457793,2 3.6144583,2 z"
       id="path3367"
       style="fill:url(#linearGradient3281);fill-opacity:1;fill-rule:nonzero;stroke:none;stroke-width:0.8855623;marker:none;visibility:visible;display:inline;overflow:visible;enable-background:accumulate" />
    <path
       d="M 9.4999998,8.5000011 C 9.5001774,9.0522516 8.8285534,9.4999999 7.9999995,9.4999999 7.1714474,9.4999999 6.4998225,9.0522516 6.5,8.5000011 6.4998225,7.9477505 7.1714474,7.5000013 7.9999995,7.5000013 c 0.8285539,0 1.5001779,0.4477492 1.5000003,0.9999998 z"
       id="path3369"
       style="fill:#d4d4d5;fill-opacity:1;fill-rule:nonzero;stroke:url(#linearGradient3278);stroke-width:1.00000012;stroke-linecap:round;stroke-linejoin:round;stroke-miterlimit:4;stroke-opacity:1;stroke-dasharray:none;stroke-dashoffset:0;marker:none;visibility:visible;display:inline;overflow:visible;enable-background:accumulate" />
  </g>
</svg>

<?xml version="1.0" encoding="UTF-8" standalone="no"?>
<!-- Created with Inkscape (http://www.inkscape.org/) -->
<svg
   xmlns:svg="http://www.w3.org/2000/svg"
   xmlns="http://www.w3.org/2000/svg"
   xmlns:xlink="http://www.w3.org/1999/xlink"
   version="1.0"
   width="16"
   height="16"
   id="svg3297">
  <defs
     id="defs3299">
    <linearGradient
       id="linearGradient3341">
      <stop
         id="stop3343"
         style="stop-color:#333333;stop-opacity:1"
         offset="0" />
      <stop
         id="stop3345"
         style="stop-color:#000000;stop-opacity:1"
         offset="1" />
    </linearGradient>
    <linearGradient
       x1="27.566711"
       y1="44.514233"
       x2="27.566711"
       y2="52.980434"
       id="linearGradient3293"
       xlink:href="#linearGradient3341"
       gradientUnits="userSpaceOnUse"
       gradientTransform="matrix(0.2384121,0,0,0.3607527,0.367317,-3.6657439)" />
    <linearGradient
       id="linearGradient2215">
      <stop
         id="stop2223"
         style="stop-color:#555556;stop-opacity:1"
         offset="0" />
      <stop
         id="stop2219"
         style="stop-color:#0c0c0d;stop-opacity:1"
         offset="1" />
    </linearGradient>
    <linearGradient
       x1="53.99139"
       y1="87.89592"
       x2="53.99139"
       y2="104.28131"
       id="linearGradient3291"
       xlink:href="#linearGradient2215"
       gradientUnits="userSpaceOnUse"
       gradientTransform="matrix(0.1242128,0,0,0.1863981,0.233129,-3.9907482)" />
    <linearGradient
       id="linearGradient3484">
      <stop
         id="stop3486"
         style="stop-color:#9b9b9b;stop-opacity:1"
         offset="0" />
      <stop
         id="stop3488"
         style="stop-color:#b6b6b6;stop-opacity:1"
         offset="1" />
    </linearGradient>
    <linearGradient
       x1="7.8514447"
       y1="19.967693"
       x2="7.8514447"
       y2="7.034781"
       id="linearGradient3288"
       xlink:href="#linearGradient3484"
       gradientUnits="userSpaceOnUse"
       gradientTransform="matrix(0.6451613,0,0,0.9797594,0.258064,-6.7257265)" />
    <linearGradient
       id="linearGradient7056">
      <stop
         id="stop7064"
         style="stop-color:#e1e1e2;stop-opacity:1"
         offset="0" />
      <stop
         id="stop7060"
         style="stop-color:#d2d2d3;stop-opacity:1"
         offset="1" />
    </linearGradient>
    <linearGradient
       x1="-35.53907"
       y1="-144.20657"
       x2="-35.53907"
       y2="-108.32133"
       id="linearGradient3286"
       xlink:href="#linearGradient7056"
       gradientUnits="userSpaceOnUse"
       gradientTransform="matrix(0.2359882,0,0,0.3555555,18.232394,51.440112)" />
    <linearGradient
       id="linearGradient7056-300">
      <stop
         id="stop3597"
         style="stop-color:#cbcbcb;stop-opacity:1"
         offset="0" />
      <stop
         id="stop3599"
         style="stop-color:#bdbdbe;stop-opacity:1"
         offset="1" />
    </linearGradient>
    <linearGradient
       x1="35.341114"
       y1="37.03133"
       x2="35.341114"
       y2="13.899854"
       id="linearGradient3281"
       xlink:href="#linearGradient7056-300"
       gradientUnits="userSpaceOnUse"
       gradientTransform="matrix(0.3595756,0,0,0.3890817,-2.639522,-3.4081793)" />
    <linearGradient
       id="linearGradient3776">
      <stop
         id="stop3778"
         style="stop-color:#a0a0a1;stop-opacity:1"
         offset="0" />
      <stop
         id="stop3780"
         style="stop-color:#e0e0e1;stop-opacity:1"
         offset="1" />
    </linearGradient>
    <linearGradient
       x1="44.261497"
       y1="53.951618"
       x2="44.261497"
       y2="28.299864"
       id="linearGradient3278"
       xlink:href="#linearGradient3776"
       gradientUnits="userSpaceOnUse"
       gradientTransform="matrix(6.9058626e-2,0,0,9.2058465e-2,5.5833331,4.7600632)" />
  </defs>
  <g
     id="layer1">
    <path
       d="M 0.517589,12.612663 C 5.50494,12.612663 10.492289,12.612663 15.47964,12.612663 C 15.519829,12.730418 15.486136,12.783241 15.497229,12.925931 C 15.193064,15.460969 15.270839,15.483925 14.720062,15.483925 C 14.504332,15.520095 6.021745,15.483925 1.249897,15.483925 C 0.651763,15.483925 0.802893,15.533246 0.5,12.5 L 0.517589,12.612663 z"
       id="rect2992"
       style="fill:url(#linearGradient3291);fill-opacity:1;fill-rule:nonzero;stroke:url(#linearGradient3293);stroke-width:0.99999988;stroke-linecap:butt;stroke-linejoin:miter;marker:none;marker-start:none;marker-mid:none;marker-end:none;stroke-miterlimit:4;stroke-dasharray:none;stroke-dashoffset:0;stroke-opacity:1;visibility:visible;display:inline;overflow:visible;enable-background:accumulate" />
    <path
       d="M 1.4897093,1.4657632 L 0.514749,12.488885 C 0.505,12.488885 0.5,12.491788 0.5,12.499999 L 15.499999,12.499999 C 15.499999,12.491788 15.494998,12.488885 15.48525,12.488885 L 14.479867,1.2478485 C 14.479867,1.2478485 14.292121,0.50444715 13.570232,0.50444715 C 12.882084,0.50444715 3.0351967,0.49999991 2.3102217,0.49999991 C 1.5515417,0.49999991 1.4897093,1.4657632 1.4897093,1.4657632 z"
       id="rect2990"
       style="fill:url(#linearGradient3286);fill-opacity:1;fill-rule:nonzero;stroke:url(#linearGradient3288);stroke-width:0.99999988;stroke-linecap:round;stroke-linejoin:round;marker:none;marker-start:none;marker-mid:none;marker-end:none;stroke-miterlimit:4;stroke-dasharray:none;stroke-dashoffset:0;stroke-opacity:1;visibility:visible;display:inline;overflow:visible;enable-background:accumulate" />
    <path
       d="M 1.4762913,12.5 L 14.523709,12.5"
       id="path2215"
       style="opacity:0.6;fill:none;fill-opacity:1;fill-rule:evenodd;stroke:#ffffff;stroke-width:0.99999988;stroke-linecap:round;stroke-linejoin:round;stroke-miterlimit:4;stroke-dasharray:none;stroke-opacity:1;display:inline" />
    <path
       d="M 3.6144583,2 L 2.8509841,2.6227952 L 2.616216,4.6377207 C 2.5559027,4.7762125 2.5189187,4.9151489 2.5189187,5.0651288 C 2.5189187,5.0734565 2.5187173,5.0812561 2.5189187,5.0895521 L 2.5081082,5.1506103 C 2.5153598,5.150906 2.5225164,5.150246 2.5297302,5.1506103 C 2.5585939,5.4858499 2.744311,5.7956708 3.0486489,6.0542741 C 2.3961917,6.5720757 2,7.2128456 2,7.9104482 C 2,9.6190115 4.3189567,10.999999 7.1783785,11 C 7.3570919,11 7.5339711,10.998319 7.7081077,10.987789 L 12.68108,10.987789 L 13.834768,9.9284892 L 13.21535,2.6227952 L 12.457793,2 L 3.6144583,2 z"
       id="path3367"
       style="fill:url(#linearGradient3281);fill-opacity:1;fill-rule:nonzero;stroke:none;stroke-width:0.8855623;stroke-linecap:round;stroke-linejoin:round;marker:none;marker-start:none;marker-mid:none;marker-end:none;stroke-miterlimit:4;stroke-dasharray:none;stroke-dashoffset:0;stroke-opacity:1;visibility:visible;display:inline;overflow:visible;enable-background:accumulate" />
    <path
       d="M 9.4999998,8.5000011 C 9.5001774,9.0522516 8.8285534,9.4999999 7.9999995,9.4999999 C 7.1714474,9.4999999 6.4998225,9.0522516 6.5,8.5000011 C 6.4998225,7.9477505 7.1714474,7.5000013 7.9999995,7.5000013 C 8.8285534,7.5000013 9.5001774,7.9477505 9.4999998,8.5000011 z"
       id="path3369"
       style="fill:#d4d4d5;fill-opacity:1;fill-rule:nonzero;stroke:url(#linearGradient3278);stroke-width:1.00000012;stroke-linecap:round;stroke-linejoin:round;marker:none;marker-start:none;marker-mid:none;marker-end:none;stroke-miterlimit:4;stroke-dasharray:none;stroke-dashoffset:0;stroke-opacity:1;visibility:visible;display:inline;overflow:visible;enable-background:accumulate" />
  </g>
</svg>
